btlcenter/img/icon_robotic.svg

<svg fill="none" height="50" viewBox="0 0 50 50" width="50" xmlns="http://www.w3.org/2000/svg" xmlns:xlink="http://www.w3.org/1999/xlink"><clipPath id="a"><path d="m0 0h50v50h-50z"/></clipPath><g clip-path="url(#a)" fill="#000"><path d="m20.152 11.1541c-1.8742 0-3.3936 1.5194-3.3936 3.3936s1.5194 3.3936 3.3936 3.3936 3.3936-1.5194 3.3936-3.3936-1.5194-3.3936-3.3936-3.3936zm0 5.0904c-.9372 0-1.6968-.7596-1.6968-1.6968.0047-.9338.763-1.6883 1.6968-1.6883v-.0085c.9372 0 1.6968.7596 1.6968 1.6968s-.7596 1.6968-1.6968 1.6968z"/><path d="m29.8577 11.1541c-1.8743 0-3.3936 1.5194-3.3936 3.3936s1.5193 3.3936 3.3936 3.3936c1.8742 0 3.3936-1.5194 3.3936-3.3936s-1.5194-3.3936-3.3936-3.3936zm0 5.0904c-.9372 0-1.6968-.7596-1.6968-1.6968.0046-.9338.763-1.6883 1.6968-1.6883v-.0085c.9371 0 1.6968.7596 1.6968 1.6968s-.7597 1.6968-1.6968 1.6968z"/><path d="m40.2031 15.0607c-.366-2.0142-1.9875-3.5636-4.0163-3.8379-.5599-2.07005-2.1719-3.83472-5.4128-3.83472h-4.9207v-1.86647c1.4883-.46853 2.315-2.05493 1.8464-3.54312-.4686-1.488302-2.055-2.314959-3.5432-1.846326-1.4883.468528-2.3149 2.054926-1.8463 3.543116.2771.88.9663 1.56933 1.8463 1.84633v1.82405h-4.9122c-2.2907 0-4.7001 1.05201-5.4297 3.83474-2.5856.355-4.39399 2.7387-4.03904 5.3243.27824 2.0274 1.82984 3.6452 3.84384 4.0081l-.0084.0424c.2545 3.7245 3.0202 5.0904 5.6248 5.0904h11.5382c3.8772 0 5.4298-2.5452 5.6249-5.0904 2.5677-.4668 4.271-2.9268 3.8042-5.4945zm-26.6177 3.7977c-1.6024-.4632-2.526-2.1377-2.0629-3.7401.2879-.9962 1.0668-1.775 2.0629-2.0629zm10.2911-15.98379c0-.62315.5052-1.12837 1.1283-1.12837.6232 0 1.1284.50522 1.1284 1.12837s-.5052 1.12837-1.1284 1.12837c-.6231 0-1.1283-.50522-1.1283-1.12837zm10.851 17.06979c0 1.4762-.5175 3.9535-3.9536 3.9535h-11.5297c-1.4762 0-3.9535-.5175-3.9535-3.9535l-.0085-6.889c0-3.44452 2.4773-3.95356 3.9535-3.95356h11.5382c3.4445 0 3.9536 2.47736 3.9536 3.95356zm1.6628-1.1454v-5.803c1.2934.3733 2.1851 1.5554 2.1889 2.9015-.0038 1.3461-.8955 2.5282-2.1889 2.9015z"/><path d="m29.8577 20.249h-9.7057c-.4685 0-.8484.3798-.8484.8484 0 .4685.3799.8484.8484.8484h9.7057c.4685 0 .8484-.3799.8484-.8484 0-.4686-.3799-.8484-.8484-.8484z"/><path d="m43.8817 27.2312c-.0163-1.8179-1.5031-3.2785-3.321-3.2623-1.5212.0136-2.8349 1.0676-3.1778 2.5496l-2.2652.4412h-20.2258l-2.2652-.4412c-.3881-1.7761-2.1425-2.9013-3.91864-2.5131-1.77612.3881-2.90131 2.1425-2.51317 3.9186.26385 1.2073 1.1815 2.1651 2.37647 2.4803v6.3375c-1.43517.3829-2.43618 1.6792-2.44339 3.1645v1.5017c0 .4685.37987.8484.8484.8484s.8484-.3799.8484-.8484v-1.5102c0-.8808.71414-1.5949 1.59499-1.5949.88084 0 1.59494.7141 1.59494 1.5949v1.5102c0 .4685.3799.8484.8484.8484.4686 0 .8484-.3799.8484-.8484v-1.5102c-.0072-1.4853-1.0082-2.7816-2.4433-3.1645v-6.3375c1.0777-.2904 1.9342-1.1085 2.2737-2.1719l1.4168.28v10.4692c.0017 1.5349.3253 3.0522.9502 4.4541v.0763c2.5048 5.5525 9.0365 8.023 14.5888 5.5182 2.4504-1.1054 4.4128-3.0677 5.5182-5.5182l.0424-.0933c.6316-1.3946.9639-2.9062.9757-4.4371v-10.4692l1.4168-.28c.3395 1.0634 1.1959 1.8815 2.2737 2.1719v6.3375c-1.4351.3829-2.4362 1.6792-2.4434 3.1645v1.5102c0 .4685.3799.8484.8484.8484.4686 0 .8484-.3799.8484-.8484v-1.5102c.0009-.8808.7157-1.5943 1.5965-1.5935.8797.0009 1.5927.7139 1.5935 1.5935v1.5102c0 .4685.3799.8484.8484.8484s.8484-.3799.8484-.8484v-1.5102c-.0072-1.4853-1.0082-2.7816-2.4434-3.1645v-6.3375c1.4419-.3765 2.451-1.6745 2.4604-3.1646zm-34.46194 1.595c-.88085 0-1.59499-.7142-1.59499-1.595 0-.8809.71414-1.595 1.59499-1.595.88084 0 1.59494.7141 1.59494 1.595 0 .8808-.7141 1.595-1.59494 1.595zm15.58504 19.4876c-3.1962-.0001-6.1702-1.6358-7.8816-4.3353h15.7632c-1.7114 2.6994-4.6853 4.3352-7.8816 4.3353zm9.3324-9.3323c-.0041 1.1313-.214 2.2525-.6193 3.3087h-17.4431c-.4053-1.0562-.6152-2.1774-.6193-3.3087v-10.325h18.6817zm6.2615-10.1555c-.003 0-.0058.0001-.0088.0001l-.017-.0255c-.8808 0-1.595-.7141-1.595-1.595 0-.8808.7142-1.595 1.595-1.595.8809 0 1.595.7142 1.595 1.595.0141.8809-.6885 1.6062-1.5692 1.6204z"/><path d="m28.0061 34.6442c-.1553-.1402-.357-.218-.5664-.2186h-2.5452l3.1221-3.2069c.3002-.3598.2519-.8948-.1079-1.195-.3218-.2684-.7913-.2617-1.1053.0157l-4.5219 4.6492c-.328.3346-.3226.8718.012 1.1998.1598.1566.375.2438.5988.2425h2.6131l-3.2154 3.5802c-.3131.347-.2866.882.0593 1.1963.347.313.8819.2865 1.1963-.0594l4.5219-5.0056c.3139-.3478.2865-.8843-.0614-1.1982z"/></g></svg>

<svg width="50" height="50" viewBox="0 0 50 50" fill="none" xmlns="http://www.w3.org/2000/svg">
<g clip-path="url(#clip0)">
<path d="M20.152 11.1541C18.2778 11.1541 16.7584 12.6735 16.7584 14.5477C16.7584 16.4219 18.2778 17.9413 20.152 17.9413C22.0262 17.9413 23.5456 16.4219 23.5456 14.5477C23.5456 12.6735 22.0262 11.1541 20.152 11.1541ZM20.152 16.2445C19.2148 16.2445 18.4552 15.4849 18.4552 14.5477C18.4599 13.6139 19.2182 12.8594 20.152 12.8594V12.8509C21.0892 12.8509 21.8488 13.6105 21.8488 14.5477C21.8488 15.4849 21.0892 16.2445 20.152 16.2445Z" fill="black"/>
<path d="M29.8577 11.1541C27.9834 11.1541 26.4641 12.6735 26.4641 14.5477C26.4641 16.4219 27.9834 17.9413 29.8577 17.9413C31.7319 17.9413 33.2513 16.4219 33.2513 14.5477C33.2513 12.6735 31.7319 11.1541 29.8577 11.1541ZM29.8577 16.2445C28.9205 16.2445 28.1609 15.4849 28.1609 14.5477C28.1655 13.6139 28.9239 12.8594 29.8577 12.8594V12.8509C30.7948 12.8509 31.5545 13.6105 31.5545 14.5477C31.5545 15.4849 30.7948 16.2445 29.8577 16.2445Z" fill="black"/>
<path d="M40.2031 15.0607C39.8371 13.0465 38.2156 11.4971 36.1868 11.2228C35.6269 9.15275 34.0149 7.38808 30.774 7.38808H25.8533V5.52161C27.3416 5.05308 28.1683 3.46668 27.6997 1.97849C27.2311 0.490188 25.6447 -0.336469 24.1565 0.132164C22.6682 0.600692 21.8416 2.18709 22.3102 3.67528C22.5873 4.55528 23.2765 5.24461 24.1565 5.52161V7.34566H19.2443C16.9536 7.34566 14.5442 8.39767 13.8146 11.1804C11.229 11.5354 9.42061 13.9191 9.77556 16.5047C10.0538 18.5321 11.6054 20.1499 13.6194 20.5128L13.611 20.5552C13.8655 24.2797 16.6312 25.6456 19.2358 25.6456H30.774C34.6512 25.6456 36.2038 23.1004 36.3989 20.5552C38.9666 20.0884 40.6699 17.6284 40.2031 15.0607ZM13.5854 18.8584C11.983 18.3952 11.0594 16.7207 11.5225 15.1183C11.8104 14.1221 12.5893 13.3433 13.5854 13.0554V18.8584ZM23.8765 2.87461C23.8765 2.25146 24.3817 1.74624 25.0048 1.74624C25.628 1.74624 26.1332 2.25146 26.1332 2.87461C26.1332 3.49776 25.628 4.00298 25.0048 4.00298C24.3817 4.00298 23.8765 3.49776 23.8765 2.87461ZM34.7275 19.9444C34.7275 21.4206 34.21 23.8979 30.7739 23.8979H19.2442C17.768 23.8979 15.2907 23.3804 15.2907 19.9444L15.2822 13.0554C15.2822 9.61088 17.7595 9.10184 19.2357 9.10184H30.7739C34.2184 9.10184 34.7275 11.5792 34.7275 13.0554V19.9444ZM36.3903 18.799V12.996C37.6837 13.3693 38.5754 14.5514 38.5792 15.8975C38.5754 17.2436 37.6837 18.4257 36.3903 18.799Z" fill="black"/>
<path d="M29.8577 20.249H20.152C19.6835 20.249 19.3036 20.6288 19.3036 21.0974C19.3036 21.5659 19.6835 21.9458 20.152 21.9458H29.8577C30.3262 21.9458 30.7061 21.5659 30.7061 21.0974C30.7061 20.6288 30.3262 20.249 29.8577 20.249Z" fill="black"/>
<path d="M43.8817 27.2312C43.8654 25.4133 42.3786 23.9527 40.5607 23.9689C39.0395 23.9825 37.7258 25.0365 37.3829 26.5185L35.1177 26.9597H14.8919L12.6267 26.5185C12.2386 24.7424 10.4842 23.6172 8.70806 24.0054C6.93194 24.3935 5.80675 26.1479 6.19489 27.924C6.45874 29.1313 7.37639 30.0891 8.57136 30.4043V36.7418C7.13619 37.1247 6.13518 38.421 6.12797 39.9063V41.408C6.12797 41.8765 6.50784 42.2564 6.97637 42.2564C7.4449 42.2564 7.82477 41.8765 7.82477 41.408V39.8978C7.82477 39.017 8.53891 38.3029 9.41976 38.3029C10.3006 38.3029 11.0147 39.017 11.0147 39.8978V41.408C11.0147 41.8765 11.3946 42.2564 11.8631 42.2564C12.3317 42.2564 12.7115 41.8765 12.7115 41.408V39.8978C12.7043 38.4125 11.7033 37.1162 10.2682 36.7333V30.3958C11.3459 30.1054 12.2024 29.2873 12.5419 28.2239L13.9587 28.5039V38.9731C13.9604 40.508 14.284 42.0253 14.9089 43.4272V43.5035C17.4137 49.056 23.9454 51.5265 29.4977 49.0217C31.9481 47.9163 33.9105 45.954 35.0159 43.5035L35.0583 43.4102C35.6899 42.0156 36.0222 40.504 36.034 38.9731V28.5039L37.4508 28.2239C37.7903 29.2873 38.6467 30.1054 39.7245 30.3958V36.7333C38.2894 37.1162 37.2883 38.4125 37.2811 39.8978V41.408C37.2811 41.8765 37.661 42.2564 38.1295 42.2564C38.5981 42.2564 38.9779 41.8765 38.9779 41.408V39.8978C38.9788 39.017 39.6936 38.3035 40.5744 38.3043C41.4541 38.3052 42.1671 39.0182 42.1679 39.8978V41.408C42.1679 41.8765 42.5478 42.2564 43.0163 42.2564C43.4848 42.2564 43.8647 41.8765 43.8647 41.408V39.8978C43.8575 38.4125 42.8565 37.1162 41.4213 36.7333V30.3958C42.8632 30.0193 43.8723 28.7213 43.8817 27.2312ZM9.41976 28.8262C8.53891 28.8262 7.82477 28.112 7.82477 27.2312C7.82477 26.3503 8.53891 25.6362 9.41976 25.6362C10.3006 25.6362 11.0147 26.3503 11.0147 27.2312C11.0147 28.112 10.3006 28.8262 9.41976 28.8262ZM25.0048 48.3138C21.8086 48.3137 18.8346 46.678 17.1232 43.9785H32.8864C31.175 46.6779 28.2011 48.3137 25.0048 48.3138ZM34.3372 38.9815C34.3331 40.1128 34.1232 41.234 33.7179 42.2902H16.2748C15.8695 41.234 15.6596 40.1128 15.6555 38.9815V28.6565H34.3372V38.9815ZM40.5987 28.826C40.5957 28.826 40.5929 28.8261 40.5899 28.8261L40.5729 28.8006C39.6921 28.8006 38.9779 28.0865 38.9779 27.2056C38.9779 26.3248 39.6921 25.6106 40.5729 25.6106C41.4538 25.6106 42.1679 26.3248 42.1679 27.2056C42.182 28.0865 41.4794 28.8118 40.5987 28.826Z" fill="black"/>
<path d="M28.0061 34.6442C27.8508 34.504 27.6491 34.4262 27.4397 34.4256H24.8945L28.0166 31.2187C28.3168 30.8589 28.2685 30.3239 27.9087 30.0237C27.5869 29.7553 27.1174 29.762 26.8034 30.0394L22.2815 34.6886C21.9535 35.0232 21.9589 35.5604 22.2935 35.8884C22.4533 36.045 22.6685 36.1322 22.8923 36.1309H25.5054L22.29 39.7111C21.9769 40.0581 22.0034 40.5931 22.3493 40.9074C22.6963 41.2204 23.2312 41.1939 23.5456 40.848L28.0675 35.8424C28.3814 35.4946 28.354 34.9581 28.0061 34.6442Z" fill="black"/>
</g>
<defs>
<clipPath id="clip0">
<rect width="50" height="50" fill="white"/>
</clipPath>
</defs>
</svg>
